svg/fluentui-system-icons/ic_fluent_arrow_hook_down_left_20_regular.svg

<svg width="20" height="20" viewBox="0 0 20 20" fill="none" xmlns="http://www.w3.org/2000/svg">
<path d="M6 4.5C6 4.22386 6.22386 4 6.5 4H11C12.6357 4 13.8992 4.61835 14.7487 5.57407C15.5901 6.52058 16 7.76846 16 9C16 10.2315 15.5901 11.4794 14.7487 12.4259C13.8992 13.3816 12.6357 14 11 14H5.70711L8.35355 16.6464C8.54882 16.8417 8.54882 17.1583 8.35355 17.3536C8.15829 17.5488 7.84171 17.5488 7.64645 17.3536L4.14645 13.8536C3.95118 13.6583 3.95118 13.3417 4.14645 13.1464L7.64645 9.64645C7.84171 9.45118 8.15829 9.45118 8.35355 9.64645C8.54882 9.84171 8.54882 10.1583 8.35355 10.3536L5.70711 13H11C12.3643 13 13.3508 12.4934 14.0013 11.7616C14.6599 11.0206 15 10.0185 15 9C15 7.98153 14.6599 6.97942 14.0013 6.23843C13.3508 5.50665 12.3643 5 11 5H6.5C6.22386 5 6 4.77614 6 4.5Z" fill="#212121"/>
</svg>

<svg xmlns="http://www.w3.org/2000/svg" width="20" height="20"><path d="M6 4.5a.5.5 0 0 1 .5-.5H11c1.636 0 2.9.618 3.749 1.574C15.59 6.521 16 7.768 16 9c0 1.232-.41 2.48-1.251 3.426C13.899 13.382 12.636 14 11 14H5.707l2.647 2.646a.5.5 0 0 1-.708.708l-3.5-3.5a.5.5 0 0 1 0-.708l3.5-3.5a.5.5 0 1 1 .708.708L5.707 13H11c1.364 0 2.35-.507 3.001-1.238C14.66 11.02 15 10.018 15 9s-.34-2.02-.999-2.762C13.351 5.507 12.364 5 11 5H6.5a.5.5 0 0 1-.5-.5Z"/></svg>
